bernoullicharts/pow_x_3_4__bound.svg

<?xml version="1.0" encoding="utf-8" standalone="no"?>
<!DOCTYPE svg PUBLIC "-//W3C//DTD SVG 1.1//EN"
  "http://www.w3.org/Graphics/SVG/1.1/DTD/svg11.dtd">
<!-- Created with matplotlib (https://matplotlib.org/) -->
<svg height="345.6pt" version="1.1" viewBox="0 0 460.8 345.6" width="460.8pt" xmlns="http://www.w3.org/2000/svg" xmlns:xlink="http://www.w3.org/1999/xlink">
 <defs>
  <style type="text/css">
*{stroke-linecap:butt;stroke-linejoin:round;}
  </style>
 </defs>
 <g id="figure_1">
  <g id="patch_1">
   <path d="M 0 345.6 
L 460.8 345.6 
L 460.8 0 
L 0 0 
z
" style="fill:#ffffff;"/>
  </g>
  <g id="axes_1">
   <g id="patch_2">
    <path d="M 57.6 307.584 
L 414.72 307.584 
L 414.72 41.472 
L 57.6 41.472 
z
" style="fill:#ffffff;"/>
   </g>
   <g id="matplotlib.axis_1">
    <g id="xtick_1">
     <g id="line2d_1">
      <defs>
       <path d="M 0 0 
L 0 3.5 
" id="m841876ee3d" style="stroke:#000000;stroke-width:0.8;"/>
      </defs>
      <g>
       <use style="stroke:#000000;stroke-width:0.8;" x="73.800255" xlink:href="#m841876ee3d" y="307.584"/>
      </g>
     </g>
     <g id="text_1">
      <text style="font-family:DejaVu Sans;font-size:10px;font-style:normal;font-weight:normal;text-anchor:middle;" transform="rotate(-0, 73.800255, 322.182437)" x="73.800255" y="322.182437">0.0</text>
     </g>
    </g>
    <g id="xtick_2">
     <g id="line2d_2">
      <g>
       <use style="stroke:#000000;stroke-width:0.8;" x="138.744153" xlink:href="#m841876ee3d" y="307.584"/>
      </g>
     </g>
     <g id="text_2">
      <text style="font-family:DejaVu Sans;font-size:10px;font-style:normal;font-weight:normal;text-anchor:middle;" transform="rotate(-0, 138.744153, 322.182437)" x="138.744153" y="322.182437">0.2</text>
     </g>
    </g>
    <g id="xtick_3">
     <g id="line2d_3">
      <g>
       <use style="stroke:#000000;stroke-width:0.8;" x="203.688051" xlink:href="#m841876ee3d" y="307.584"/>
      </g>
     </g>
     <g id="text_3">
      <text style="font-family:DejaVu Sans;font-size:10px;font-style:normal;font-weight:normal;text-anchor:middle;" transform="rotate(-0, 203.688051, 322.182437)" x="203.688051" y="322.182437">0.4</text>
     </g>
    </g>
    <g id="xtick_4">
     <g id="line2d_4">
      <g>
       <use style="stroke:#000000;stroke-width:0.8;" x="268.631949" xlink:href="#m841876ee3d" y="307.584"/>
      </g>
     </g>
     <g id="text_4">
      <text style="font-family:DejaVu Sans;font-size:10px;font-style:normal;font-weight:normal;text-anchor:middle;" transform="rotate(-0, 268.631949, 322.182437)" x="268.631949" y="322.182437">0.6</text>
     </g>
    </g>
    <g id="xtick_5">
     <g id="line2d_5">
      <g>
       <use style="stroke:#000000;stroke-width:0.8;" x="333.575847" xlink:href="#m841876ee3d" y="307.584"/>
      </g>
     </g>
     <g id="text_5">
      <text style="font-family:DejaVu Sans;font-size:10px;font-style:normal;font-weight:normal;text-anchor:middle;" transform="rotate(-0, 333.575847, 322.182437)" x="333.575847" y="322.182437">0.8</text>
     </g>
    </g>
    <g id="xtick_6">
     <g id="line2d_6">
      <g>
       <use style="stroke:#000000;stroke-width:0.8;" x="398.519745" xlink:href="#m841876ee3d" y="307.584"/>
      </g>
     </g>
     <g id="text_6">
      <text style="font-family:DejaVu Sans;font-size:10px;font-style:normal;font-weight:normal;text-anchor:middle;" transform="rotate(-0, 398.519745, 322.182437)" x="398.519745" y="322.182437">1.0</text>
     </g>
    </g>
    <g id="text_7">
     <text style="font-family:DejaVu Sans;font-size:10px;font-style:normal;font-weight:normal;text-anchor:middle;" transform="rotate(-0, 236.16, 335.860562)" x="236.16" y="335.860562">Input Coin's Heads Probability (λ)</text>
    </g>
   </g>
   <g id="matplotlib.axis_2">
    <g id="ytick_1">
     <g id="line2d_7">
      <defs>
       <path d="M 0 0 
L -3.5 0 
" id="m7aac190188" style="stroke:#000000;stroke-width:0.8;"/>
      </defs>
      <g>
       <use style="stroke:#000000;stroke-width:0.8;" x="57.6" xlink:href="#m7aac190188" y="300.042504"/>
      </g>
     </g>
     <g id="text_8">
      <text style="font-family:DejaVu Sans;font-size:10px;font-style:normal;font-weight:normal;text-anchor:end;" transform="rotate(-0, 50.6, 303.841722)" x="50.6" y="303.841722">0</text>
     </g>
    </g>
    <g id="ytick_2">
     <g id="line2d_8">
      <g>
       <use style="stroke:#000000;stroke-width:0.8;" x="57.6" xlink:href="#m7aac190188" y="269.679526"/>
      </g>
     </g>
     <g id="text_9">
      <text style="font-family:DejaVu Sans;font-size:10px;font-style:normal;font-weight:normal;text-anchor:end;" transform="rotate(-0, 50.6, 273.478745)" x="50.6" y="273.478745">5</text>
     </g>
    </g>
    <g id="ytick_3">
     <g id="line2d_9">
      <g>
       <use style="stroke:#000000;stroke-width:0.8;" x="57.6" xlink:href="#m7aac190188" y="239.316549"/>
      </g>
     </g>
     <g id="text_10">
      <text style="font-family:DejaVu Sans;font-size:10px;font-style:normal;font-weight:normal;text-anchor:end;" transform="rotate(-0, 50.6, 243.115768)" x="50.6" y="243.115768">10</text>
     </g>
    </g>
    <g id="ytick_4">
     <g id="line2d_10">
      <g>
       <use style="stroke:#000000;stroke-width:0.8;" x="57.6" xlink:href="#m7aac190188" y="208.953572"/>
      </g>
     </g>
     <g id="text_11">
      <text style="font-family:DejaVu Sans;font-size:10px;font-style:normal;font-weight:normal;text-anchor:end;" transform="rotate(-0, 50.6, 212.752791)" x="50.6" y="212.752791">15</text>
     </g>
    </g>
    <g id="ytick_5">
     <g id="line2d_11">
      <g>
       <use style="stroke:#000000;stroke-width:0.8;" x="57.6" xlink:href="#m7aac190188" y="178.590595"/>
      </g>
     </g>
     <g id="text_12">
      <text style="font-family:DejaVu Sans;font-size:10px;font-style:normal;font-weight:normal;text-anchor:end;" transform="rotate(-0, 50.6, 182.389814)" x="50.6" y="182.389814">20</text>
     </g>
    </g>
    <g id="ytick_6">
     <g id="line2d_12">
      <g>
       <use style="stroke:#000000;stroke-width:0.8;" x="57.6" xlink:href="#m7aac190188" y="148.227618"/>
      </g>
     </g>
     <g id="text_13">
      <text style="font-family:DejaVu Sans;font-size:10px;font-style:normal;font-weight:normal;text-anchor:end;" transform="rotate(-0, 50.6, 152.026836)" x="50.6" y="152.026836">25</text>
     </g>
    </g>
    <g id="ytick_7">
     <g id="line2d_13">
      <g>
       <use style="stroke:#000000;stroke-width:0.8;" x="57.6" xlink:href="#m7aac190188" y="117.86464"/>
      </g>
     </g>
     <g id="text_14">
      <text style="font-family:DejaVu Sans;font-size:10px;font-style:normal;font-weight:normal;text-anchor:end;" transform="rotate(-0, 50.6, 121.663859)" x="50.6" y="121.663859">30</text>
     </g>
    </g>
    <g id="ytick_8">
     <g id="line2d_14">
      <g>
       <use style="stroke:#000000;stroke-width:0.8;" x="57.6" xlink:href="#m7aac190188" y="87.501663"/>
      </g>
     </g>
     <g id="text_15">
      <text style="font-family:DejaVu Sans;font-size:10px;font-style:normal;font-weight:normal;text-anchor:end;" transform="rotate(-0, 50.6, 91.300882)" x="50.6" y="91.300882">35</text>
     </g>
    </g>
    <g id="ytick_9">
     <g id="line2d_15">
      <g>
       <use style="stroke:#000000;stroke-width:0.8;" x="57.6" xlink:href="#m7aac190188" y="57.138686"/>
      </g>
     </g>
     <g id="text_16">
      <text style="font-family:DejaVu Sans;font-size:10px;font-style:normal;font-weight:normal;text-anchor:end;" transform="rotate(-0, 50.6, 60.937905)" x="50.6" y="60.937905">40</text>
     </g>
    </g>
    <g id="text_17">
     <text style="font-family:DejaVu Sans;font-size:10px;font-style:normal;font-weight:normal;text-anchor:middle;" transform="rotate(-90, 31.795312, 174.528)" x="31.795312" y="174.528">Coin Flips Needed</text>
    </g>
   </g>
   <g id="line2d_16">
    <path clip-path="url(#p546b131125)" d="M 73.832727 257.064085 
L 77.112066 289.05051 
L 80.391405 290.672605 
L 83.670744 291.487708 
L 86.950083 292.011311 
L 90.229421 292.388046 
L 93.50876 292.677681 
L 96.788099 292.910298 
L 100.067438 293.103012 
L 103.346777 293.266421 
L 106.626116 293.407502 
L 109.905455 293.531079 
L 113.184793 293.640609 
L 116.464132 293.738649 
L 119.743471 293.82714 
L 123.02281 293.907586 
L 126.302149 293.981172 
L 129.581488 294.048851 
L 132.860826 294.111397 
L 136.140165 294.169445 
L 139.419504 294.223527 
L 142.698843 294.274087 
L 145.978182 294.321502 
L 149.257521 294.366095 
L 152.53686 294.408141 
L 155.816198 294.447882 
L 159.095537 294.485526 
L 162.374876 294.521255 
L 165.654215 294.555232 
L 168.933554 294.587598 
L 172.212893 294.61848 
L 175.492231 294.647991 
L 178.77157 294.676231 
L 182.050909 294.703293 
L 185.330248 294.729256 
L 188.609587 294.754196 
L 191.888926 294.778179 
L 195.168264 294.801267 
L 198.447603 294.823514 
L 201.726942 294.844972 
L 205.006281 294.865688 
L 208.28562 294.885704 
L 211.564959 294.905059 
L 214.844298 294.923791 
L 218.123636 294.941931 
L 221.402975 294.959512 
L 224.682314 294.976562 
L 227.961653 294.993108 
L 231.240992 295.009175 
L 234.520331 295.024785 
L 237.799669 295.039961 
L 241.079008 295.054722 
L 244.358347 295.069088 
L 247.637686 295.083076 
L 250.917025 295.096702 
L 254.196364 295.109983 
L 257.475702 295.122932 
L 260.755041 295.135564 
L 264.03438 295.147892 
L 267.313719 295.159928 
L 270.593058 295.171682 
L 273.872397 295.183168 
L 277.151736 295.194393 
L 280.431074 295.205369 
L 283.710413 295.216105 
L 286.989752 295.226609 
L 290.269091 295.23689 
L 293.54843 295.246956 
L 296.827769 295.256813 
L 300.107107 295.26647 
L 303.386446 295.275934 
L 306.665785 295.285209 
L 309.945124 295.294304 
L 313.224463 295.303223 
L 316.503802 295.311973 
L 319.78314 295.320558 
L 323.062479 295.328984 
L 326.341818 295.337256 
L 329.621157 295.345379 
L 332.900496 295.353356 
L 336.179835 295.361193 
L 339.459174 295.368893 
L 342.738512 295.376461 
L 346.017851 295.3839 
L 349.29719 295.391214 
L 352.576529 295.398406 
L 355.855868 295.405479 
L 359.135207 295.412438 
L 362.414545 295.419285 
L 365.693884 295.426023 
L 368.973223 295.432655 
L 372.252562 295.439184 
L 375.531901 295.445612 
L 378.81124 295.451943 
L 382.090579 295.458177 
L 385.369917 295.464319 
L 388.649256 295.47037 
L 391.928595 295.476332 
L 395.207934 295.482208 
L 398.487273 295.488 
" style="fill:none;stroke:#1f77b4;stroke-linecap:square;stroke-width:1.5;"/>
   </g>
   <g id="line2d_17">
    <path clip-path="url(#p546b131125)" d="M 73.832727 53.568 
L 77.112066 283.476463 
L 80.391405 284.690982 
L 83.670744 287.39936 
L 86.950083 288.407411 
L 90.229421 288.128071 
L 93.50876 288.006619 
L 96.788099 288.68675 
L 100.067438 288.443846 
L 103.346777 289.500478 
L 106.626116 290.204899 
L 109.905455 289.01467 
L 113.184793 289.439752 
L 116.464132 288.953944 
L 119.743471 290.763578 
L 123.02281 290.945756 
L 126.302149 290.435658 
L 129.581488 290.714997 
L 132.860826 290.982191 
L 136.140165 290.848594 
L 139.419504 291.686612 
L 142.698843 290.970046 
L 145.978182 291.055062 
L 149.257521 290.642126 
L 152.53686 291.030772 
L 155.816198 291.638031 
L 159.095537 291.091498 
L 162.374876 292.002387 
L 165.654215 292.014532 
L 168.933554 291.965952 
L 172.212893 291.856645 
L 175.492231 291.419418 
L 178.77157 292.050968 
L 182.050909 291.419418 
L 185.330248 292.318162 
L 188.609587 291.905226 
L 191.888926 292.330307 
L 195.168264 292.19671 
L 198.447603 292.281727 
L 201.726942 292.063113 
L 205.006281 292.646082 
L 208.28562 292.318162 
L 211.564959 292.561066 
L 214.844298 292.366743 
L 218.123636 292.512485 
L 221.402975 292.488195 
L 224.682314 292.706808 
L 227.961653 292.609647 
L 231.240992 292.682518 
L 234.520331 292.682518 
L 237.799669 293.034728 
L 241.079008 292.706808 
L 244.358347 292.694663 
L 247.637686 293.095454 
L 250.917025 292.949712 
L 254.196364 293.229051 
L 257.475702 293.13189 
L 260.755041 293.374794 
L 264.03438 293.229051 
L 267.313719 293.13189 
L 270.593058 293.229051 
L 273.872397 293.168325 
L 277.151736 293.13189 
L 280.431074 293.192616 
L 283.710413 293.265487 
L 286.989752 293.277632 
L 290.269091 293.411229 
L 293.54843 293.314068 
L 296.827769 293.374794 
L 300.107107 293.386939 
L 303.386446 293.532681 
L 306.665785 293.386939 
L 309.945124 293.496246 
L 313.224463 293.508391 
L 316.503802 293.45981 
L 319.78314 293.617698 
L 323.062479 293.581262 
L 326.341818 293.605552 
L 329.621157 293.556972 
L 332.900496 293.641988 
L 336.179835 293.666278 
L 339.459174 293.629843 
L 342.738512 293.702714 
L 346.017851 293.799875 
L 349.29719 293.569117 
L 352.576529 293.714859 
L 355.855868 293.751295 
L 359.135207 293.666278 
L 362.414545 293.739149 
L 365.693884 293.824166 
L 368.973223 293.751295 
L 372.252562 293.872747 
L 375.531901 293.848456 
L 378.81124 293.897037 
L 382.090579 293.933473 
L 385.369917 293.921327 
L 388.649256 293.945618 
L 391.928595 293.933473 
L 395.207934 293.945618 
L 398.487273 293.969908 
" style="fill:none;stroke:#ff7f0e;stroke-linecap:square;stroke-width:1.5;"/>
   </g>
   <g id="patch_3">
    <path d="M 57.6 307.584 
L 57.6 41.472 
" style="fill:none;stroke:#000000;stroke-linecap:square;stroke-linejoin:miter;stroke-width:0.8;"/>
   </g>
   <g id="patch_4">
    <path d="M 414.72 307.584 
L 414.72 41.472 
" style="fill:none;stroke:#000000;stroke-linecap:square;stroke-linejoin:miter;stroke-width:0.8;"/>
   </g>
   <g id="patch_5">
    <path d="M 57.6 307.584 
L 414.72 307.584 
" style="fill:none;stroke:#000000;stroke-linecap:square;stroke-linejoin:miter;stroke-width:0.8;"/>
   </g>
   <g id="patch_6">
    <path d="M 57.6 41.472 
L 414.72 41.472 
" style="fill:none;stroke:#000000;stroke-linecap:square;stroke-linejoin:miter;stroke-width:0.8;"/>
   </g>
   <g id="text_18">
    <text style="font-family:DejaVu Sans;font-size:12px;font-style:normal;font-weight:normal;text-anchor:middle;" transform="rotate(-0, 236.16, 35.472)" x="236.16" y="35.472">Coin Flips for pow(x,3/4)</text>
   </g>
   <g id="legend_1">
    <g id="patch_7">
     <path d="M 219.784062 78.82825 
L 407.72 78.82825 
Q 409.72 78.82825 409.72 76.82825 
L 409.72 48.472 
Q 409.72 46.472 407.72 46.472 
L 219.784062 46.472 
Q 217.784062 46.472 217.784062 48.472 
L 217.784062 76.82825 
Q 217.784062 78.82825 219.784062 78.82825 
z
" style="fill:#ffffff;opacity:0.8;stroke:#cccccc;stroke-linejoin:miter;"/>
    </g>
    <g id="line2d_18">
     <path d="M 221.784062 54.570437 
L 241.784062 54.570437 
" style="fill:none;stroke:#1f77b4;stroke-linecap:square;stroke-width:1.5;"/>
    </g>
    <g id="line2d_19"/>
    <g id="text_19">
     <text style="font-family:DejaVu Sans;font-size:10px;font-style:normal;font-weight:normal;text-anchor:start;" transform="rotate(-0, 249.784062, 58.070437)" x="249.784062" y="58.070437">Coin Flip Lower Bound (Mendo)</text>
    </g>
    <g id="line2d_20">
     <path d="M 221.784062 69.248562 
L 241.784062 69.248562 
" style="fill:none;stroke:#ff7f0e;stroke-linecap:square;stroke-width:1.5;"/>
    </g>
    <g id="line2d_21"/>
    <g id="text_20">
     <text style="font-family:DejaVu Sans;font-size:10px;font-style:normal;font-weight:normal;text-anchor:start;" transform="rotate(-0, 249.784062, 72.748562)" x="249.784062" y="72.748562">Avg. Coins Flipped pow(x,3/4)</text>
    </g>
   </g>
  </g>
 </g>
 <defs>
  <clipPath id="p546b131125">
   <rect height="266.112" width="357.12" x="57.6" y="41.472"/>
  </clipPath>
 </defs>
</svg>

<svg height="460.8" viewBox="0 0 460.8 345.6" width="614.4" xmlns="http://www.w3.org/2000/svg" xmlns:xlink="http://www.w3.org/1999/xlink"><defs><style>*{stroke-linecap:butt;stroke-linejoin:round}</style></defs><g id="figure_1"><path d="M0 345.6h460.8V0H0z" fill="#fff" id="patch_1"/><g id="axes_1"><path d="M57.6 307.584h357.12V41.472H57.6z" fill="#fff" id="patch_2"/><g id="matplotlib.axis_1"><g id="xtick_1"><g id="line2d_1"><defs><path d="M0 0v3.5" id="m841876ee3d" stroke="#000" stroke-width=".8"/></defs><use x="73.8" xlink:href="#m841876ee3d" y="307.584" stroke="#000" stroke-width=".8"/></g><text x="73.8" y="322.182" font-family="DejaVu Sans" font-size="10" font-weight="400" text-anchor="middle" id="text_1">0.0</text></g><g id="xtick_2"><use x="138.744" xlink:href="#m841876ee3d" y="307.584" stroke="#000" stroke-width=".8" id="line2d_2"/><text x="138.744" y="322.182" font-family="DejaVu Sans" font-size="10" font-weight="400" text-anchor="middle" id="text_2">0.2</text></g><g id="xtick_3"><use x="203.688" xlink:href="#m841876ee3d" y="307.584" stroke="#000" stroke-width=".8" id="line2d_3"/><text x="203.688" y="322.182" font-family="DejaVu Sans" font-size="10" font-weight="400" text-anchor="middle" id="text_3">0.4</text></g><g id="xtick_4"><use x="268.632" xlink:href="#m841876ee3d" y="307.584" stroke="#000" stroke-width=".8" id="line2d_4"/><text x="268.632" y="322.182" font-family="DejaVu Sans" font-size="10" font-weight="400" text-anchor="middle" id="text_4">0.6</text></g><g id="xtick_5"><use x="333.576" xlink:href="#m841876ee3d" y="307.584" stroke="#000" stroke-width=".8" id="line2d_5"/><text x="333.576" y="322.182" font-family="DejaVu Sans" font-size="10" font-weight="400" text-anchor="middle" id="text_5">0.8</text></g><g id="xtick_6"><use x="398.52" xlink:href="#m841876ee3d" y="307.584" stroke="#000" stroke-width=".8" id="line2d_6"/><text x="398.52" y="322.182" font-family="DejaVu Sans" font-size="10" font-weight="400" text-anchor="middle" id="text_6">1.0</text></g><text x="236.16" y="335.861" font-family="DejaVu Sans" font-size="10" font-weight="400" text-anchor="middle" id="text_7">Input Coin&apos;s Heads Probability (λ)</text></g><g id="matplotlib.axis_2"><g id="ytick_1"><g id="line2d_7"><defs><path d="M0 0h-3.5" id="m7aac190188" stroke="#000" stroke-width=".8"/></defs><use x="57.6" xlink:href="#m7aac190188" y="300.043" stroke="#000" stroke-width=".8"/></g><text x="50.6" y="303.842" font-family="DejaVu Sans" font-size="10" font-weight="400" text-anchor="end" id="text_8">0</text></g><g id="ytick_2"><use x="57.6" xlink:href="#m7aac190188" y="269.68" stroke="#000" stroke-width=".8" id="line2d_8"/><text x="50.6" y="273.479" font-family="DejaVu Sans" font-size="10" font-weight="400" text-anchor="end" id="text_9">5</text></g><g id="ytick_3"><use x="57.6" xlink:href="#m7aac190188" y="239.317" stroke="#000" stroke-width=".8" id="line2d_9"/><text x="50.6" y="243.116" font-family="DejaVu Sans" font-size="10" font-weight="400" text-anchor="end" id="text_10">10</text></g><g id="ytick_4"><use x="57.6" xlink:href="#m7aac190188" y="208.954" stroke="#000" stroke-width=".8" id="line2d_10"/><text x="50.6" y="212.753" font-family="DejaVu Sans" font-size="10" font-weight="400" text-anchor="end" id="text_11">15</text></g><g id="ytick_5"><use x="57.6" xlink:href="#m7aac190188" y="178.591" stroke="#000" stroke-width=".8" id="line2d_11"/><text x="50.6" y="182.39" font-family="DejaVu Sans" font-size="10" font-weight="400" text-anchor="end" id="text_12">20</text></g><g id="ytick_6"><use x="57.6" xlink:href="#m7aac190188" y="148.228" stroke="#000" stroke-width=".8" id="line2d_12"/><text x="50.6" y="152.027" font-family="DejaVu Sans" font-size="10" font-weight="400" text-anchor="end" id="text_13">25</text></g><g id="ytick_7"><use x="57.6" xlink:href="#m7aac190188" y="117.865" stroke="#000" stroke-width=".8" id="line2d_13"/><text x="50.6" y="121.664" font-family="DejaVu Sans" font-size="10" font-weight="400" text-anchor="end" id="text_14">30</text></g><g id="ytick_8"><use x="57.6" xlink:href="#m7aac190188" y="87.502" stroke="#000" stroke-width=".8" id="line2d_14"/><text x="50.6" y="91.301" font-family="DejaVu Sans" font-size="10" font-weight="400" text-anchor="end" id="text_15">35</text></g><g id="ytick_9"><use x="57.6" xlink:href="#m7aac190188" y="57.139" stroke="#000" stroke-width=".8" id="line2d_15"/><text x="50.6" y="60.938" font-family="DejaVu Sans" font-size="10" font-weight="400" text-anchor="end" id="text_16">40</text></g><text transform="rotate(-90 31.795 174.528)" x="31.795" y="174.528" font-family="DejaVu Sans" font-size="10" font-weight="400" text-anchor="middle" id="text_17">Coin Flips Needed</text></g><path clip-path="url(#p546b131125)" d="M73.833 257.064l3.28 31.987 3.278 1.622 3.28.815 3.28.523 3.278.377 3.28.29 3.28.232 3.278.193 3.28.163 3.28.142 3.278.123 3.28.11 3.28.098 3.278.088 3.28.08 3.28.074 3.278.068 3.28.062 3.28.058 3.279.055 3.279.05 3.28.048 3.279.044 3.279.042 3.28.04 3.279.038 3.279.035 3.28.034 3.279.033 3.279.03 3.28.03 3.279.028 3.279.027 3.28.026 3.279.025 3.279.024 3.28.023 3.279.023 3.279.021 3.28.02 3.279.02 3.279.02 3.28.019 3.279.018 3.279.018 3.28.017 3.279.016 3.279.016 3.28.016 3.279.015 3.279.015 3.28.014 3.279.014 3.279.014 3.28.013 3.279.013 3.279.013 3.28.012 3.279.012 3.28.012 3.278.011 3.28.011 3.28.011 3.278.011 3.28.01 3.28.01 3.278.011 3.28.01 3.28.01 3.278.009 3.28.01 3.28.008 3.278.01 3.28.008 3.28.009 3.278.008 3.28.008 3.28.008 3.278.008 3.28.008 3.28.008 3.279.007 3.279.008 3.28.007 3.279.007 3.279.007 3.28.007 3.279.007 3.279.007 3.28.007 3.279.006 3.279.007 3.28.006 3.279.006 3.279.006 3.28.006 3.279.006 3.279.006 3.28.006" fill="none" stroke="#1f77b4" stroke-linecap="square" stroke-width="1.5" id="line2d_16"/><path clip-path="url(#p546b131125)" d="M73.833 53.568l3.28 229.908 3.278 1.215 3.28 2.708 3.28 1.008 3.278-.279 3.28-.121 3.28.68 3.278-.243 3.28 1.056 3.28.705 3.278-1.19 3.28.425 3.28-.486 3.278 1.81 3.28.182 3.28-.51 3.278.279 3.28.267 3.28-.133 3.279.838 3.279-.717 3.28.085 3.279-.413 3.279.389 3.28.607 3.279-.547 3.279.911 3.28.013 3.279-.049 3.279-.11 3.28-.437 3.279.632 3.279-.632 3.28.9 3.279-.414 3.279.425 3.28-.133 3.279.085 3.279-.219 3.28.583 3.279-.328 3.279.243 3.28-.194 3.279.145 3.279-.024 3.28.219 3.279-.097 3.279.073h3.28l3.279.352 3.279-.328 3.28-.012 3.279.4 3.279-.145 3.28.28 3.279-.098 3.279.243 3.28-.146 3.279-.097 3.28.097 3.278-.06 3.28-.037 3.28.06 3.278.073 3.28.013 3.28.133 3.278-.097 3.28.06 3.28.013 3.278.146 3.28-.146 3.28.11 3.278.011 3.28-.048 3.28.158 3.278-.037 3.28.025 3.28-.049 3.278.085 3.28.024 3.28-.036 3.279.073 3.279.097 3.28-.23 3.279.145 3.279.036 3.28-.085 3.279.073 3.279.085 3.28-.073 3.279.122 3.279-.025 3.28.049 3.279.036 3.279-.012 3.28.025 3.279-.013 3.279.013 3.28.024" fill="none" stroke="#ff7f0e" stroke-linecap="square" stroke-width="1.5" id="line2d_17"/><path d="M57.6 307.584V41.472" fill="none" stroke="#000" stroke-linecap="square" stroke-width=".8" id="patch_3"/><path d="M414.72 307.584V41.472" fill="none" stroke="#000" stroke-linecap="square" stroke-width=".8" id="patch_4"/><path d="M57.6 307.584h357.12" fill="none" stroke="#000" stroke-linecap="square" stroke-width=".8" id="patch_5"/><path d="M57.6 41.472h357.12" fill="none" stroke="#000" stroke-linecap="square" stroke-width=".8" id="patch_6"/><text x="236.16" y="35.472" font-family="DejaVu Sans" font-size="12" font-weight="400" text-anchor="middle" id="text_18">Coin Flips for pow(x,3/4)</text><g id="legend_1"><path d="M219.784 78.828H407.72q2 0 2-2V48.472q0-2-2-2H219.784q-2 0-2 2v28.356q0 2 2 2z" fill="#fff" opacity=".8" stroke="#ccc" id="patch_7"/><path d="M221.784 54.57h20" fill="none" stroke="#1f77b4" stroke-linecap="square" stroke-width="1.5" id="line2d_18"/><text x="249.784" y="58.07" font-family="DejaVu Sans" font-size="10" font-weight="400" id="text_19">Coin Flip Lower Bound (Mendo)</text><path d="M221.784 69.249h20" fill="none" stroke="#ff7f0e" stroke-linecap="square" stroke-width="1.5" id="line2d_20"/><text x="249.784" y="72.749" font-family="DejaVu Sans" font-size="10" font-weight="400" id="text_20">Avg. Coins Flipped pow(x,3/4)</text></g></g></g><defs><clipPath id="p546b131125"><path d="M57.6 41.472h357.12v266.112H57.6z"/></clipPath></defs></svg>
